asset/img/Logo.svg

<svg width="81" height="34" viewBox="0 0 81 34" fill="none" xmlns="http://www.w3.org/2000/svg">
<path fill-rule="evenodd" clip-rule="evenodd" d="M36.7555 5.59082C38.3982 5.59082 39.4205 4.46631 39.4205 2.79893C39.4205 1.12098 38.3982 0 36.7555 0C35.1128 0 34.0905 1.12098 34.0905 2.79893C34.0905 4.46631 35.1128 5.59082 36.7555 5.59082ZM36.7625 4.42753C36.0046 4.42753 35.6169 3.73309 35.6169 2.78836C35.6169 1.84363 36.0046 1.14566 36.7625 1.14566C37.5063 1.14566 37.8941 1.84363 37.8941 2.78836C37.8941 3.73309 37.5063 4.42753 36.7625 4.42753ZM41.8986 2.35477C41.9021 1.6568 42.3181 1.24789 42.9244 1.24789C43.5272 1.24789 43.8903 1.6427 43.8868 2.30542V5.48507H45.3885V2.03751C45.3885 0.775523 44.6482 0 43.5201 0C42.7164 0 42.1348 0.394811 41.8916 1.02581H41.8281V0.0705018H40.3969V5.48507H41.8986V2.35477ZM3.51667e-06 1.48241H0.620422H29.7801V2.72325H1.24084V29.4013H26.0576V30.6421H0.620422H3.51667e-06V30.0217V2.10283V1.48241ZM80.2408 1.48241H79.6204H50.4607V2.72325H79V29.4013H54.1833V30.6421H79.6204H80.2408V30.0217V2.10283V1.48241ZM17.0476 24.6526H13.6133V8.40888H24.3684V11.2404H17.0476V15.111H23.6546V17.9425H17.0476V24.6526ZM29.9938 24.6526H26.615V12.4698H29.9938V24.6526ZM30.1445 9.18617C30.1445 10.13 29.3196 10.8994 28.3123 10.8994C27.313 10.8994 26.4881 10.13 26.4881 9.18617C26.4881 8.25025 27.313 7.4809 28.3123 7.4809C29.3196 7.4809 30.1445 8.25025 30.1445 9.18617ZM32.7004 8.40888H36.0792V24.6526H32.7004V8.40888ZM42.1647 24.6526H38.7859V12.4698H42.006V14.6192H42.1488C42.6564 13.1836 43.9017 12.3112 45.5435 12.3112C47.217 12.3112 48.4623 13.2074 48.8509 14.6192H48.9778C49.4775 13.2233 50.8655 12.3112 52.6501 12.3112C54.9185 12.3112 56.4889 13.8182 56.4889 16.4593V24.6526H53.1181V17.1256C53.1181 15.7693 52.309 15.0951 51.2304 15.0951C50.001 15.0951 49.2792 15.9517 49.2792 17.2128V24.6526H46.0035V17.0542C46.0035 15.8566 45.2579 15.0951 44.1475 15.0951C43.0213 15.0951 42.1647 15.9914 42.1647 17.3397V24.6526ZM64.1071 12.3112C67.1846 12.3112 68.9929 13.6992 69.2943 15.9438L66.2011 16.1342C66.0345 15.3489 65.3365 14.7065 64.1627 14.7065C63.1157 14.7065 62.2908 15.1824 62.2988 15.9121C62.2908 16.499 62.7112 16.8876 63.8454 17.1335L66.0504 17.5777C68.4139 18.0615 69.564 19.1164 69.5719 20.8772C69.564 23.2804 67.3035 24.8905 64.1468 24.8905C60.9187 24.8905 58.9358 23.4549 58.6185 21.1231L61.9418 20.9486C62.1481 21.94 62.9491 22.4556 64.1547 22.4556C65.3365 22.4556 66.1217 21.94 66.1376 21.2182C66.1217 20.6075 65.6379 20.2189 64.5751 20.0047L62.4653 19.5844C60.0859 19.1085 58.9358 17.9267 58.9437 16.1024C58.9358 13.7547 60.9901 12.3112 64.1071 12.3112ZM35.2898 31.9645L34.754 33.6107H33.1183L35.6106 26.3913H37.5776L40.0663 33.6107H38.4307L37.8948 31.9645H35.2898ZM36.5659 28.041L35.6776 30.773H37.5106L36.6223 28.041H36.5659ZM42.4281 33.6107H40.9264V28.1961H42.4281V33.6107ZM42.4951 26.7367C42.4951 27.1562 42.1285 27.4982 41.6808 27.4982C41.2366 27.4982 40.87 27.1562 40.87 26.7367C40.87 26.3208 41.2366 25.9788 41.6808 25.9788C42.1285 25.9788 42.4951 26.3208 42.4951 26.7367ZM45.1328 33.6107H43.6311V28.1961H45.0869V29.1409H45.1433C45.3408 28.4711 45.8378 28.1186 46.4441 28.1186C46.5957 28.1186 46.7825 28.1397 46.9165 28.1715V29.504C46.7755 29.4581 46.4899 29.4229 46.282 29.4229C45.6192 29.4229 45.1328 29.8811 45.1328 30.5474V33.6107Z" fill="#38C835"/>
</svg>

<?xml version="1.0" encoding="utf-8"?>
<!-- Generator: Adobe Illustrator 25.2.0, SVG Export Plug-In . SVG Version: 6.00 Build 0)  -->
<svg version="1.1" id="Calque_1" xmlns="http://www.w3.org/2000/svg" xmlns:xlink="http://www.w3.org/1999/xlink" x="0px" y="0px"
	 viewBox="0 0 81 34" style="enable-background:new 0 0 81 34;" xml:space="preserve">
<style type="text/css">
	.st0{fill-rule:evenodd;clip-rule:evenodd;fill:#38C835;}
</style>
<path class="st0" d="M36.8,5.6c1.6,0,2.7-1.1,2.7-2.8c0-1.7-1-2.8-2.7-2.8s-2.7,1.1-2.7,2.8C34.1,4.5,35.1,5.6,36.8,5.6z M36.8,4.4
	c-0.8,0-1.1-0.7-1.1-1.6s0.4-1.6,1.1-1.6c0.7,0,1.1,0.7,1.1,1.6S37.5,4.4,36.8,4.4z M41.9,2.4c0-0.7,0.4-1.1,1-1.1
	c0.6,0,1,0.4,1,1.1v3.2h1.5V2c0-1.3-0.7-2-1.9-2c-0.8,0-1.4,0.4-1.6,1h-0.1v-1h-1.4v5.4h1.5V2.4z M0,1.5h0.6h29.2v1.2H1.2v26.7h24.8
	v1.2H0.6H0V30V2.1V1.5z M80.2,1.5h-0.6H50.5v1.2H79v26.7H54.2v1.2h25.4h0.6V30V2.1V1.5z M17,24.7h-3.4V8.4h10.8v2.8H17v3.9h6.6v2.8
	H17V24.7z M30,24.7h-3.4V12.5H30V24.7z M30.1,9.2c0,0.9-0.8,1.7-1.8,1.7c-1,0-1.8-0.8-1.8-1.7c0-0.9,0.8-1.7,1.8-1.7
	C29.3,7.5,30.1,8.3,30.1,9.2z M32.7,8.4h3.4v16.2h-3.4V8.4z M42.2,24.7h-3.4V12.5H42v2.1h0.1c0.5-1.4,1.8-2.3,3.4-2.3
	c1.7,0,2.9,0.9,3.3,2.3H49c0.5-1.4,1.9-2.3,3.7-2.3c2.3,0,3.8,1.5,3.8,4.1v8.2h-3.4v-7.5c0-1.4-0.8-2-1.9-2c-1.2,0-2,0.9-2,2.1v7.4
	H46v-7.6c0-1.2-0.7-2-1.9-2c-1.1,0-2,0.9-2,2.2V24.7z M64.1,12.3c3.1,0,4.9,1.4,5.2,3.6l-3.1,0.2c-0.2-0.8-0.9-1.4-2-1.4
	c-1,0-1.9,0.5-1.9,1.2c0,0.6,0.4,1,1.5,1.2l2.2,0.4c2.4,0.5,3.5,1.5,3.5,3.3c0,2.4-2.3,4-5.4,4c-3.2,0-5.2-1.4-5.5-3.8l3.3-0.2
	c0.2,1,1,1.5,2.2,1.5c1.2,0,2-0.5,2-1.2c0-0.6-0.5-1-1.6-1.2l-2.1-0.4c-2.4-0.5-3.5-1.7-3.5-3.5C58.9,13.8,61,12.3,64.1,12.3z
	 M35.3,32l-0.5,1.6h-1.6l2.5-7.2h2l2.5,7.2h-1.6L37.9,32H35.3z M36.6,28l-0.9,2.7h1.8L36.6,28L36.6,28z M42.4,33.6h-1.5v-5.4h1.5
	V33.6z M42.5,26.7c0,0.4-0.4,0.8-0.8,0.8c-0.4,0-0.8-0.3-0.8-0.8c0-0.4,0.4-0.8,0.8-0.8C42.1,26,42.5,26.3,42.5,26.7z M45.1,33.6
	h-1.5v-5.4h1.5v0.9h0.1c0.2-0.7,0.7-1,1.3-1c0.2,0,0.3,0,0.5,0.1v1.3c-0.1,0-0.4-0.1-0.6-0.1c-0.7,0-1.1,0.5-1.1,1.1V33.6z"/>
</svg>
